!!!OTL: Das letzte Stuendlein
!!!ARE: Europa, Mitteleuropa, Deutschland
!!!SCT: A0659B
!!!YEM: Copyright 1995, estate of Helmut Schaffrath.
**kern
*ICvox
*Ivox
*M4/2
*k[b-]
*F:
=1
{1f
2f
2a
=2
2g
2f
2g
2a
=3
1f
2r}
{2f
=4
2f
2f
2cc
2b-
=5
1a
1g}
=6
{1f
2f
2a
=7
2g
2f
2g
2a
=8
1f
2r}
{2f
=9
2f
2f
2cc
2b-
=10
1a
1g
=11
2r}
{2g
2cc
2a
=12
2g
2b-
2a
2g
=13
1f
2r}
{2a
=14
2g
2f
2e
2c
=15
2e
2f
2g
2r}
=16
{1f
2a
2cc
=17
2.b-
4a
2g
2a
=18
1g
1f}
==
!!!AGN: Romanze, Ballade, Lied, religioeses Lied
!! M. Praetorius, Mus. Sion. VIII. No. 226
!!!ONB: ESAC (Essen Associative Code) Database: ALTDEU
!!!AMT: simple quadruple
!!!AIN: vox
!!!EED: Helmut Schaffrath
!!!EEV: 1.0
*-
